X:26
T:Poll Ha'Penny (Hornpipe)
I:titlefont Times-Roman 24
I:partsfont Times-Roman 20
R:hornpipe
M:4/4
L:1/8
O:Trad. (30.9.2015/NS)
K:Ador
AB | "A5"cAAG A2 (3AB^c | d=c AF "G"G2 ^cd | "A"ed^ce "Em"d^cAG | "A5"A2 AG A2de |
"D" ~f3d "A"~e3^c | "D"d2 (3B^cd efge | "A5"aged "Em"^cAGB | "A"A2 AG A2 :|
|: ef | "G5"~g2 ga gfed | cdef gedg | "A5"eaab aged | eaab a2 ag |
"D"~f3d "A/E"~e3^c | "D/F#"d2 (3B^cd "G"efge | "A5"aged "Em"^cAGB | "A5"A2 AG A2 :|
%%vskip
%%begintext
Poll Ha'Penny
AB | cAAG A2 (3AB^c | d=c AF G2 ^cd | ed^ce d^cAG | A2 AG A2de |
~f3d ~e3^c | d2 (3B^cd efge | aged ^cAGB | A2 AG A2 :|
|: ef | ~g2 ga gfed | cdef gedg | eaab aged | eaab a2 ag |
~f3d ~e3^c | d2 (3B^cd efge | aged ^cAGB | A2 AG A2 :|
%%endtext
%%vskip
%%vskip
P:The Harvest Home
K:Dmaj
|:"D"DAFA DAFA|defe dcBA%|"A"eAfA gAfA|(3efe (3dcB (3ABA (3GFE|
%"D"DAFA DAFA|defe dcBA|"A"eAfA gece|[1"D"d2 f2 d2 AF:|[2"D"d2 f2 d2 cd|]
%|:"A"eA ~A2 "D"fA ~A2|"A7"gAfA "Em"eA ~A2|"A"eAfA gAfA|"Em"(3efe (3dcB "A"(3ABA (3GFE|
%"D"DAFA DAFA|defe dcBA|"A"eAfA gece|[1"D"d2 f2 d2 cd:|[2"D"d2 f2 d4|]
%%begintext
|: D  | D  | A  | A  |
| D  | D  | A  | D  :|
|: A D | A7 Em | A   | Em A |
| D  | D  | A  | D  :|
%%endtext

